icons/shield-slash-16.svg

<svg width="16" height="16" viewBox="0 0 16 16" fill="none" xmlns="http://www.w3.org/2000/svg">
<g clip-path="url(#clip0_8042_72905)">
<path d="M8.53342 0.133185C8.18651 0.0221745 7.81361 0.0221739 7.4667 0.133184L5.37592 0.802234C4.98142 0.928476 4.76395 1.35063 4.89019 1.74513C5.01643 2.13964 5.43858 2.35711 5.83309 2.23087L7.92387 1.56182C7.97342 1.54596 8.0267 1.54596 8.07626 1.56182L13.3263 3.24182C13.4298 3.27496 13.5001 3.37121 13.5001 3.47993V6.99997C13.5001 7.23282 13.492 7.46413 13.4747 7.69353C13.4435 8.10657 13.753 8.46668 14.1661 8.49785C14.5791 8.52902 14.9392 8.21945 14.9704 7.80642C14.9908 7.53659 15.0001 7.26751 15.0001 6.99997V3.47993C15.0001 2.71891 14.5082 2.04513 13.7834 1.81318L8.53342 0.133185Z" fill="#24292F"/>
<path fill-rule="evenodd" clip-rule="evenodd" d="M1.00006 2.85702L0.310172 2.35745C-0.0253172 2.11451 -0.100343 1.6456 0.142598 1.31011C0.385538 0.974622 0.854447 0.899596 1.18994 1.14254L15.6899 11.6425C16.0254 11.8855 16.1005 12.3544 15.8575 12.6899C15.6146 13.0254 15.1457 13.1004 14.8102 12.8574L13.5281 11.929C12.5335 13.3258 10.9755 14.5529 8.66415 15.5372C8.2395 15.718 7.7585 15.7172 7.33514 15.5368C4.88842 14.4947 3.28638 13.1806 2.30326 11.6822C1.31929 10.1824 1.00006 8.56602 1.00006 6.99997V2.85702ZM2.50006 3.94323V6.99997C2.50006 8.3583 2.77471 9.6663 3.55743 10.8593C4.341 12.0537 5.67844 13.2008 7.92293 14.1568C7.97205 14.1777 8.02858 14.1775 8.07642 14.1571C10.2028 13.2516 11.5148 12.1746 12.3131 11.0492L2.50006 3.94323Z" fill="#24292F"/>
</g>
<defs>
<clipPath id="clip0_8042_72905">
<rect width="16" height="16" fill="white"/>
</clipPath>
</defs>
</svg>

<svg xmlns="http://www.w3.org/2000/svg" width="16" height="16" viewBox="0 0 16 16"><path d="M8.533.133a1.75 1.75 0 00-1.066 0l-2.091.67a.75.75 0 00.457 1.428l2.09-.67a.25.25 0 01.153 0l5.25 1.68a.25.25 0 01.174.239V7c0 .233-.008.464-.025.694a.75.75 0 101.495.112c.02-.27.03-.538.03-.806V3.48a1.75 1.75 0 00-1.217-1.667L8.533.133z"/><path fill-rule="evenodd" d="M1 2.857l-.69-.5a.75.75 0 11.88-1.214l14.5 10.5a.75.75 0 11-.88 1.214l-1.282-.928c-.995 1.397-2.553 2.624-4.864 3.608-.425.181-.905.18-1.329 0-2.447-1.042-4.049-2.356-5.032-3.855C1.32 10.182 1 8.566 1 7V2.857zm1.5 1.086V7c0 1.358.275 2.666 1.057 3.86.784 1.194 2.121 2.34 4.366 3.297.05.02.106.02.153 0 2.127-.905 3.439-1.982 4.237-3.108L2.5 3.943z"/></svg>
